assets/img/braze_icons/upload-01-alt.svg

<svg fill="none" height="24" viewBox="0 0 24 24" width="24" xmlns="http://www.w3.org/2000/svg"><g fill="#801ed7"><path d="m11.2929 2.29289c.3905-.39052 1.0237-.39052 1.4142 0l5 5c.3905.39053.3905 1.02369 0 1.41422-.3905.39052-1.0237.39052-1.4142 0l-3.2929-3.2929v9.58579c0 .5523-.4477 1-1 1s-1-.4477-1-1v-9.58579l-3.29289 3.2929c-.39053.39052-1.02369.39052-1.41422 0-.39052-.39053-.39052-1.02369 0-1.41422z"/><path d="m8.00003 14c.55227 0 .99997.4477.99997 1 0 1.6569 1.3431 3 3 3s3-1.3431 3-3c0-.5523.4477-1 1-1h2.6671c.3045-.0002.5665-.0003.8022.037 1.2837.2033 2.2904 1.2101 2.4938 2.4938.0373.2356.0371.4976.0369.8022v.1497c.0002.4769.0003.8304-.0493 1.1431-.271 1.7116-1.6134 3.0539-3.325 3.325-.3127.0495-.6662.0494-1.1432.0493h-10.96502c-.47698.0001-.83047.0002-1.14322-.0493-1.71157-.2711-3.05393-1.6134-3.32502-3.325-.04953-.3128-.04942-.6663-.04926-1.1432l-.00001-.1497c-.0002-.3045-.00036-.5665.03696-.8021.20331-1.2837 1.21008-2.2905 2.49376-2.4938.23566-.0373.49767-.0372.8022-.037z"/></g></svg>

<svg width="24" height="24" viewBox="0 0 24 24" fill="none" xmlns="http://www.w3.org/2000/svg">
<path d="M11.2929 2.29289C11.6834 1.90237 12.3166 1.90237 12.7071 2.29289L17.7071 7.29289C18.0976 7.68342 18.0976 8.31658 17.7071 8.70711C17.3166 9.09763 16.6834 9.09763 16.2929 8.70711L13 5.41421L13 15C13 15.5523 12.5523 16 12 16C11.4477 16 11 15.5523 11 15L11 5.41421L7.70711 8.70711C7.31658 9.09763 6.68342 9.09763 6.29289 8.70711C5.90237 8.31658 5.90237 7.68342 6.29289 7.29289L11.2929 2.29289Z" fill="#801ED7"/>
<path d="M8.00003 14C8.5523 14 9 14.4477 9 15C9 16.6569 10.3431 18 12 18C13.6569 18 15 16.6569 15 15C15 14.4477 15.4477 14 16 14H18.6671C18.9716 13.9998 19.2336 13.9997 19.4693 14.037C20.753 14.2403 21.7597 15.2471 21.9631 16.5308C22.0004 16.7664 22.0002 17.0284 22 17.333L22 17.4827C22.0002 17.9596 22.0003 18.3131 21.9507 18.6258C21.6797 20.3374 20.3373 21.6797 18.6257 21.9508C18.313 22.0003 17.9595 22.0002 17.4825 22.0001H6.51748C6.0405 22.0002 5.68701 22.0003 5.37426 21.9508C3.66269 21.6797 2.32033 20.3374 2.04924 18.6258C1.99971 18.313 1.99982 17.9595 1.99998 17.4826L1.99997 17.3329C1.99977 17.0284 1.99961 16.7664 2.03693 16.5308C2.24024 15.2471 3.24701 14.2403 4.53069 14.037C4.76635 13.9997 5.02836 13.9998 5.33289 14H8.00003Z" fill="#801ED7"/>
</svg>
